<?xml version="1.0" encoding="UTF-8"?>
<map version="1.10" tiledversion="1.11.2" orientation="orthogonal" renderorder="right-down" width="13" height="19" tilewidth="16" tileheight="16" infinite="0" nextlayerid="6" nextobjectid="6">
 <editorsettings>
  <export target="../../../Downloads/avoid-blurp-default..csv" format="csv"/>
 </editorsettings>
 <tileset firstgid="1" source="sprite.tsx"/>
 <layer id="2" name="background" width="13" height="19">
  <data encoding="csv">
0,0,0,0,0,0,0,0,0,0,0,0,0,
39,40,41,0,0,0,0,0,0,0,0,0,0,
42,43,44,0,0,0,0,0,39,40,41,0,0,
0,0,0,0,0,0,0,0,42,43,44,0,0,
0,0,0,0,0,0,0,0,0,0,0,0,0,
0,0,0,0,0,0,0,0,0,0,0,0,0,
0,0,0,0,0,0,0,0,0,0,0,0,0,
0,0,0,39,40,41,0,0,0,0,0,0,0,
0,0,0,42,43,44,0,0,0,0,0,0,0,
0,0,0,0,0,0,0,0,0,0,39,40,41,
0,0,0,0,0,0,0,0,0,0,42,43,44,
0,0,0,0,0,0,0,0,0,0,0,0,0,
0,0,0,0,0,0,0,0,0,0,0,0,0,
0,0,0,0,0,0,0,0,0,0,0,0,0,
0,0,0,0,0,0,0,0,0,0,0,0,0,
0,0,0,0,0,0,0,0,0,0,0,0,0,
0,46,47,48,0,0,0,0,46,47,48,0,0,
0,0,0,0,0,0,0,0,0,0,0,0,0,
0,0,0,0,0,0,0,0,0,0,0,0,0
</data>
 </layer>
 <layer id="4" name="object" width="13" height="19">
  <data encoding="csv">
0,0,0,0,0,0,0,0,0,0,0,0,0,
0,0,0,0,0,0,0,0,0,0,0,0,0,
0,0,0,0,0,0,0,0,0,0,0,0,0,
0,0,0,0,0,0,0,0,0,0,0,0,0,
0,0,0,0,0,0,0,0,0,0,0,0,0,
0,0,0,0,0,0,0,0,0,0,0,0,0,
0,0,0,0,0,0,0,0,0,0,0,0,0,
0,0,0,0,0,0,0,0,0,0,0,0,0,
0,0,0,0,0,0,0,0,0,0,0,0,0,
0,0,0,0,0,0,0,0,0,0,0,0,0,
0,0,0,0,0,0,0,0,0,0,0,0,0,
0,0,0,0,0,0,0,0,0,0,0,0,0,
0,0,0,0,0,0,0,0,0,0,0,0,0,
0,0,0,0,0,0,0,0,0,0,0,0,0,
0,0,0,0,0,0,0,0,0,0,0,0,0,
0,0,0,0,0,0,0,0,0,0,0,0,0,
0,0,0,0,0,0,1,0,0,0,0,0,0,
33,33,33,33,33,33,33,33,33,33,33,33,33,
33,33,33,33,33,33,33,33,33,33,33,33,33
</data>
 </layer>
</map>
