<?xml version="1.0" encoding="UTF-8"?>
<map version="1.10" tiledversion="1.11.2" orientation="orthogonal" renderorder="right-down" width="32" height="32" tilewidth="16" tileheight="16" infinite="0" nextlayerid="3" nextobjectid="1">
 <editorsettings>
  <export target="../../kymnasium/zelda_adventure/assets/stage-2.csv" format="csv"/>
 </editorsettings>
 <tileset firstgid="1" source="objects.tsx"/>
 <layer id="1" name="object" width="32" height="32">
  <data encoding="csv">
1,1,1,1,1,1,1,1,1,1,1,1,1,1,1,1,1,1,1,1,1,1,1,1,1,1,1,1,1,1,1,1,
1,11,0,1,0,0,0,0,0,0,0,0,0,1,0,0,0,0,0,0,0,0,0,1,0,0,0,0,0,0,0,1,
1,0,0,1,0,2,3,4,0,1,0,0,0,1,0,0,14,0,2,3,4,0,0,1,0,0,0,0,0,0,0,1,
1,0,14,1,0,5,6,7,0,1,1,1,0,1,0,14,0,1,5,6,7,0,0,1,0,0,0,0,1,0,13,1,
1,0,0,1,0,8,9,10,0,1,0,0,0,1,0,0,0,1,8,9,10,0,0,1,0,0,0,0,1,0,0,1,
1,0,0,1,0,0,0,0,0,1,0,1,1,1,14,0,0,1,0,2,3,4,0,1,1,1,36,0,1,0,0,1,
1,14,0,1,2,3,4,0,0,1,0,0,0,1,0,14,0,1,0,5,6,7,0,1,0,0,0,0,1,0,0,1,
1,0,0,1,5,6,7,0,0,1,1,1,0,1,0,0,0,1,0,8,9,10,0,1,0,0,0,0,1,13,0,1,
1,0,0,1,8,9,10,0,0,1,0,0,0,1,0,0,14,1,0,0,0,0,0,1,0,36,1,1,1,0,0,1,
1,0,14,1,0,21,0,0,0,1,0,1,1,1,0,14,0,1,2,3,4,0,0,1,0,0,0,0,1,0,0,1,
1,0,0,1,0,0,0,0,0,1,0,0,0,1,0,0,0,1,5,6,7,0,0,1,0,0,0,0,1,0,0,1,
1,0,14,1,0,0,0,0,0,1,1,1,0,1,14,0,0,1,8,9,10,0,0,1,1,1,36,0,1,0,13,1,
1,0,0,1,0,2,3,4,0,1,0,0,31,1,0,0,0,1,0,0,0,0,0,1,0,0,0,0,1,0,0,1,
1,14,0,1,0,5,6,7,0,1,0,1,1,1,0,14,0,1,0,2,3,4,0,1,0,0,0,0,1,0,0,1,
1,0,0,1,0,8,9,10,0,1,0,0,0,1,0,14,0,1,0,5,6,7,0,1,0,36,1,1,1,0,0,1,
1,0,14,1,0,0,0,0,0,1,1,1,0,1,0,0,0,1,0,8,9,10,0,1,0,0,0,0,1,13,0,1,
1,0,0,1,0,0,0,0,0,26,0,0,0,1,0,14,41,48,0,0,0,0,0,1,0,0,0,0,1,0,0,1,
1,0,0,1,0,0,2,3,4,1,1,1,0,1,0,0,14,1,2,3,4,0,0,1,1,1,36,0,1,0,0,1,
1,0,14,1,0,0,5,6,7,1,0,0,0,1,14,0,0,1,5,6,7,0,0,1,0,0,0,0,1,0,0,1,
1,0,0,1,0,0,8,9,10,1,0,1,36,1,0,14,0,1,8,9,10,0,0,1,0,0,0,0,1,0,13,1,
1,14,0,1,0,0,0,0,0,1,0,0,0,1,0,0,0,1,0,0,0,0,0,1,0,36,1,1,1,0,0,1,
1,0,0,1,2,3,4,0,1,1,1,1,0,1,0,0,0,1,0,0,0,0,0,1,0,0,0,0,1,0,0,1,
1,0,0,1,5,6,7,0,0,1,0,0,0,1,14,0,0,1,0,2,3,4,0,1,0,0,0,0,1,0,0,1,
1,0,14,1,8,9,10,0,0,1,0,1,36,1,0,14,0,1,0,5,6,7,0,1,1,1,36,0,1,13,0,1,
1,0,0,1,0,0,0,0,0,1,0,0,0,1,0,0,0,1,0,8,9,10,0,1,0,0,0,0,1,0,0,1,
1,0,0,1,0,0,0,0,0,1,1,1,0,1,0,0,14,1,0,0,0,0,0,1,0,0,0,0,1,0,0,1,
1,14,0,1,0,2,3,4,0,1,0,0,0,1,0,14,0,1,0,0,0,0,0,1,0,36,1,1,1,0,0,1,
1,0,0,1,0,5,6,7,0,1,0,1,36,1,0,0,0,1,0,0,2,3,4,1,0,0,0,0,1,0,13,1,
1,0,14,1,0,8,9,10,0,1,0,0,0,1,0,0,0,1,0,0,5,6,7,1,0,0,0,0,1,0,0,1,
1,0,0,0,0,0,0,0,0,1,1,1,0,1,14,0,0,1,0,0,8,9,10,1,1,1,36,0,1,0,0,1,
1,0,0,0,0,0,0,0,0,1,0,0,0,0,0,0,0,1,0,0,0,0,0,0,0,0,0,0,1,0,12,1,
1,1,1,1,1,1,1,1,1,1,1,1,1,1,1,1,1,1,1,1,1,1,1,1,1,1,1,1,1,1,1,1
</data>
 </layer>
</map>
