<?xml version="1.0" encoding="UTF-8"?>
<map version="1.10" tiledversion="1.11.2" orientation="orthogonal" renderorder="right-down" width="36" height="36" tilewidth="16" tileheight="16" infinite="0" nextlayerid="3" nextobjectid="1">
 <editorsettings>
  <export target="../../kymnasium/zelda_adventure/assets/stage-3.csv" format="csv"/>
 </editorsettings>
 <tileset firstgid="1" source="objects.tsx"/>
 <layer id="1" name="object" width="36" height="36" offsetx="1" offsety="0">
  <data encoding="csv">
1,1,1,1,1,1,1,1,1,1,1,1,1,1,1,1,1,1,1,1,1,1,1,1,1,1,1,1,1,1,1,1,1,1,1,1,
1,0,14,0,0,0,0,0,1,0,0,0,0,14,1,0,0,0,0,0,0,0,12,1,0,0,0,14,0,0,0,14,0,0,0,1,
1,0,0,0,14,0,0,0,1,0,0,14,0,0,1,13,13,13,13,13,13,13,0,1,0,0,14,0,0,14,0,0,14,0,0,1,
1,0,14,0,0,1,1,0,1,0,1,1,0,0,1,0,0,0,0,0,0,0,0,1,0,0,0,0,0,14,0,0,0,0,0,1,
1,0,0,0,0,1,0,0,1,0,0,1,0,14,1,0,13,13,13,13,13,13,13,1,0,14,0,1,1,1,1,0,0,14,0,1,
1,0,1,1,37,1,0,1,1,1,0,1,0,0,1,0,0,0,0,0,0,0,0,1,0,0,0,0,0,0,1,0,0,0,14,1,
1,0,0,0,0,1,0,0,1,0,0,1,0,0,1,13,13,13,13,13,13,13,0,1,0,0,0,0,0,0,1,0,0,0,0,1,
1,0,0,0,0,1,1,0,1,0,1,1,0,0,1,0,0,0,0,0,0,0,0,1,14,1,1,1,0,14,1,1,1,0,0,1,
1,1,1,1,0,1,0,0,1,0,0,1,14,0,1,0,13,13,13,13,13,13,13,1,0,0,0,0,0,0,1,71,0,0,0,1,
1,0,0,0,0,1,0,1,1,1,0,1,0,0,0,0,0,0,0,0,0,0,0,1,0,0,0,0,0,0,1,0,0,0,0,1,
1,0,0,0,0,1,0,0,0,0,0,1,0,0,0,0,0,0,0,0,0,0,0,1,14,14,1,1,1,0,1,0,76,1,1,1,
1,0,1,1,37,1,1,1,1,1,1,1,1,1,1,1,1,1,1,1,1,1,68,1,0,0,0,0,0,0,1,0,0,0,0,1,
1,0,0,0,0,13,0,0,0,14,0,68,0,0,0,0,0,0,0,0,0,0,0,26,0,0,0,0,0,0,1,0,0,0,0,1,
1,0,0,0,0,13,0,14,0,0,0,1,0,0,0,0,0,0,0,0,0,0,0,1,1,1,1,0,0,14,1,1,1,76,0,1,
1,1,1,1,0,13,0,0,14,0,61,1,0,0,1,1,1,1,1,1,1,0,0,1,0,0,0,0,0,0,1,0,0,0,0,1,
1,0,0,0,0,1,14,0,0,0,14,1,0,0,1,0,0,0,0,21,1,0,0,1,0,0,0,0,0,0,1,0,0,0,0,1,
1,0,0,0,0,1,0,0,14,0,0,1,0,0,1,0,0,0,0,0,1,0,0,1,0,0,1,1,1,14,1,0,76,1,1,1,
1,0,1,1,37,1,0,14,0,0,14,1,0,0,1,0,0,11,0,0,1,0,0,1,0,0,0,0,0,0,1,0,0,0,0,1,
1,0,0,0,0,1,0,0,0,14,0,1,0,0,1,0,0,0,0,0,1,0,0,1,0,0,0,0,0,0,1,0,0,0,0,1,
1,0,0,0,0,1,14,0,0,0,0,1,0,0,1,0,0,0,0,0,1,0,0,1,0,14,14,1,1,1,1,1,1,76,0,1,
1,1,1,1,0,1,0,0,14,0,0,1,0,0,1,0,0,0,0,0,0,0,0,1,0,0,0,0,0,0,1,0,0,0,0,1,
1,0,0,0,0,1,0,0,0,14,0,1,0,0,1,0,0,0,0,0,0,0,0,1,0,0,0,0,0,0,1,0,0,0,0,1,
1,0,0,0,0,1,0,14,0,0,0,1,0,0,1,1,1,1,1,1,1,1,1,1,14,1,1,1,0,0,1,0,76,1,1,1,
1,0,1,1,37,1,0,0,0,0,0,1,0,0,0,0,0,0,0,0,0,0,0,0,0,0,0,0,0,0,1,0,0,0,0,1,
1,0,0,0,0,1,0,0,14,0,0,1,0,0,0,0,0,0,0,0,0,0,0,0,0,0,0,0,0,0,1,0,0,0,0,1,
1,0,0,0,0,1,1,1,1,1,1,1,1,1,1,1,1,1,1,1,1,1,1,1,1,1,1,1,1,1,1,1,1,76,0,1,
1,0,0,0,0,42,0,0,0,0,0,0,0,0,0,0,0,0,0,0,0,0,0,0,0,0,2,3,4,0,1,0,0,0,0,1,
1,0,0,0,0,1,1,1,1,1,1,1,1,1,1,1,1,1,1,1,1,1,1,1,1,0,5,6,7,0,1,0,0,0,0,1,
1,0,0,0,0,2,3,4,0,0,0,0,0,0,0,0,0,0,0,0,0,0,0,0,1,0,8,9,10,0,47,0,76,1,1,1,
1,0,0,0,0,5,6,7,0,0,0,0,0,0,0,0,0,0,2,3,4,0,0,0,1,0,0,0,0,0,1,0,0,0,0,1,
1,0,0,0,31,8,9,10,0,2,3,4,0,0,0,0,0,0,5,6,7,0,0,0,1,1,1,1,1,1,1,0,0,0,0,1,
1,0,2,3,4,0,0,0,0,5,6,7,0,0,0,0,0,0,8,9,10,0,0,0,0,0,1,0,0,0,1,0,0,0,0,1,
1,0,5,6,7,0,0,0,0,8,9,10,0,0,2,3,4,0,0,0,0,0,0,0,1,0,1,0,1,0,1,0,0,14,0,1,
1,0,8,9,10,0,0,0,0,0,0,0,0,0,5,6,7,0,0,0,0,0,0,0,1,0,1,0,1,0,1,0,14,41,0,1,
1,0,0,0,0,0,0,0,0,0,0,0,0,0,8,9,10,0,0,0,0,0,0,0,1,0,0,0,1,0,0,0,0,14,0,1,
1,1,1,1,1,1,1,1,1,1,1,1,1,1,1,1,1,1,1,1,1,1,1,1,1,1,1,1,1,1,1,1,1,1,1,1
</data>
 </layer>
</map>
